assets/azuredashboardhub/original.svg

<svg height="18" viewBox="0 0 18 18" width="18" xmlns="http://www.w3.org/2000/svg" xmlns:xlink="http://www.w3.org/1999/xlink"><linearGradient id="a" gradientUnits="userSpaceOnUse" x1="4.984" x2="8.956" y1="18.749" y2="4.782"><stop offset="0" stop-color="#258277"/><stop offset=".2" stop-color="#27887d"/><stop offset=".5" stop-color="#2c9a8d"/><stop offset="1" stop-color="#37c2b1"/></linearGradient><linearGradient id="b" gradientUnits="userSpaceOnUse" x1="6.489" x2="9.98" y1="19.216" y2="5.02"><stop offset="0" stop-color="#258277"/><stop offset=".3" stop-color="#2ea193"/><stop offset=".7" stop-color="#34b9a9"/><stop offset="1" stop-color="#37c2b1"/></linearGradient><linearGradient id="c" gradientUnits="userSpaceOnUse" x1="10.741" x2="10.741" y1="12.441" y2="1.908"><stop offset="0" stop-color="#37c2b1"/><stop offset="1" stop-color="#3cd4c2"/></linearGradient><path d="m14.087 5.605h-13.645a.427.427 0 0 0 -.442.41v9.464a.43.43 0 0 0 .443.4h13.644a.42.42 0 0 0 .435-.4v-9.479a.42.42 0 0 0 -.435-.395" fill="url(#a)"/><path d="m15.826 3.866h-13.644a.43.43 0 0 0 -.443.411v9.463a.426.426 0 0 0 .443.394h13.644a.42.42 0 0 0 .435-.394v-9.48a.42.42 0 0 0 -.435-.394" fill="url(#b)"/><path d="m17.556 2.149h-13.623a.426.426 0 0 0 -.441.411v9.448a.426.426 0 0 0 .442.394h13.622a.42.42 0 0 0 .434-.394v-9.465a.417.417 0 0 0 -.434-.394" fill="url(#c)"/><g fill="#fff"><rect height="7.53" opacity=".9" rx=".119" width="1.234" x="13.527" y="3.414"/><rect height="1.56" opacity=".6" rx=".128" width="6.904" x="4.803" y="9.392"/><rect height="4.45" opacity=".9" rx=".091" width="1.234" x="15.419" y="6.494"/><path d="m10.835 3.869-1.716 3.053-1.814-1.849-1.871 2.425.439.344 1.483-1.913 1.884 1.922 2.081-3.702z"/><ellipse cx="7.326" cy="5.499" rx=".705" ry=".709"/><ellipse cx="9.24" cy="7.258" rx=".705" ry=".709"/><ellipse cx="11.016" cy="4.097" rx=".705" ry=".709"/><ellipse cx="5.727" cy="7.567" rx=".705" ry=".709"/></g>​</svg>

<svg xmlns="http://www.w3.org/2000/svg" width="18" height="18" viewBox="0 0 18 18"><defs><linearGradient id="a0765024-843f-45d7-a5d2-6a61ef1f586b" x1="4.984" x2="8.956" y1="18.749" y2="4.782" gradientUnits="userSpaceOnUse"><stop offset="0" stop-color="#258277"/><stop offset=".2" stop-color="#27887d"/><stop offset=".5" stop-color="#2c9a8d"/><stop offset="1" stop-color="#37c2b1"/></linearGradient><linearGradient id="e27a2858-8f35-4dcb-84b5-7df910fff518" x1="6.489" x2="9.98" y1="19.216" y2="5.02" gradientUnits="userSpaceOnUse"><stop offset="0" stop-color="#258277"/><stop offset=".3" stop-color="#2ea193"/><stop offset=".7" stop-color="#34b9a9"/><stop offset="1" stop-color="#37c2b1"/></linearGradient><linearGradient id="b72a42b8-09e2-40b0-9869-677d3a3e051d" x1="10.741" x2="10.741" y1="12.441" y2="1.908" gradientUnits="userSpaceOnUse"><stop offset="0" stop-color="#37c2b1"/><stop offset="1" stop-color="#3cd4c2"/></linearGradient></defs><path fill="url(#a0765024-843f-45d7-a5d2-6a61ef1f586b)" d="M14.087 5.605H.442a.427.427 0 0 0-.442.41v9.464a.43.43 0 0 0 .443.4h13.644a.42.42 0 0 0 .435-.4V6a.42.42 0 0 0-.435-.395"/><path fill="url(#e27a2858-8f35-4dcb-84b5-7df910fff518)" d="M15.826 3.866H2.182a.43.43 0 0 0-.443.411v9.463a.426.426 0 0 0 .443.394h13.644a.42.42 0 0 0 .435-.394V4.26a.42.42 0 0 0-.435-.394"/><path fill="url(#b72a42b8-09e2-40b0-9869-677d3a3e051d)" d="M17.556 2.149H3.933a.426.426 0 0 0-.441.411v9.448a.426.426 0 0 0 .442.394h13.622a.42.42 0 0 0 .434-.394V2.543a.417.417 0 0 0-.434-.394"/><rect width="1.234" height="7.53" x="13.527" y="3.414" fill="#fff" opacity=".9" rx=".119"/><rect width="6.904" height="1.56" x="4.803" y="9.392" fill="#fff" opacity=".6" rx=".128"/><rect width="1.234" height="4.45" x="15.419" y="6.494" fill="#fff" opacity=".9" rx=".091"/><path fill="#fff" d="M10.835 3.869 9.119 6.922 7.305 5.073 5.434 7.498l.439.344 1.483-1.913L9.24 7.851l2.081-3.702z"/><ellipse cx="7.326" cy="5.499" fill="#fff" rx=".705" ry=".709"/><ellipse cx="9.24" cy="7.258" fill="#fff" rx=".705" ry=".709"/><ellipse cx="11.016" cy="4.097" fill="#fff" rx=".705" ry=".709"/><ellipse cx="5.727" cy="7.567" fill="#fff" rx=".705" ry=".709"/>​</svg>
